src/img/menu-hover.svg

<svg width="147" height="18" fill="none" xmlns="http://www.w3.org/2000/svg"><path d="M0 1h132L8.5 3h96l23 2H14l-1.5 4h107m27 0h-27m0 0-2.5 2.5H22l-9.5 2H118m27.5 0H118m0 0-1 1.5H21l7 2h113.5" stroke="#95A7FF"/></svg>

<svg width="147" height="18" viewBox="0 0 147 18" fill="none" xmlns="http://www.w3.org/2000/svg">
<path d="M0 1H132L8.5 3H104.5L127.5 5H14L12.5 9H119.5M146.5 9H119.5M119.5 9L117 11.5H92.5H22L12.5 13.5H118M145.5 13.5H118M118 13.5L117 15H21L28 17H141.5" stroke="#95A7FF"/>
</svg>
